src/icons/incidents.svg

<?xml version="1.0" encoding="UTF-8"?>
<svg xmlns="http://www.w3.org/2000/svg" xmlns:xlink="http://www.w3.org/1999/xlink" width="32" height="32" viewBox="0 0 32 32" version="1.1">
<g id="surface1">
<path style=" stroke:none;fill-rule:nonzero;fill:rgb(25.098041%,25.098041%,25.490198%);fill-opacity:1;" d="M 19.167969 25.824219 C 18.398438 26.71875 17.246094 27.265625 16 27.265625 C 14.71875 27.265625 13.601562 26.6875 12.832031 25.824219 C 11.648438 26.304688 10.785156 27.488281 10.785156 28.832031 L 10.785156 30.976562 C 10.785156 31.519531 11.230469 31.96875 11.777344 31.96875 L 20.191406 31.96875 C 20.734375 31.96875 21.183594 31.519531 21.183594 30.976562 L 21.183594 28.832031 C 21.214844 27.488281 20.382812 26.304688 19.167969 25.824219 Z M 19.167969 25.824219 "/>
<path style=" stroke:none;fill-rule:nonzero;fill:rgb(25.098041%,25.098041%,25.490198%);fill-opacity:1;" d="M 13.921875 25.601562 C 14.496094 26.046875 15.199219 26.335938 16 26.335938 C 16.800781 26.335938 17.503906 26.046875 18.078125 25.601562 C 18.976562 24.863281 19.488281 23.648438 19.199219 22.335938 C 18.945312 21.054688 17.886719 20.0625 16.609375 19.839844 C 14.527344 19.457031 12.703125 21.054688 12.703125 23.070312 C 12.703125 24.0625 13.183594 24.992188 13.921875 25.601562 Z M 13.921875 25.601562 "/>
<path style=" stroke:none;fill-rule:nonzero;fill:rgb(25.098041%,25.098041%,25.490198%);fill-opacity:1;" d="M 9.472656 28.449219 C 4.832031 25.984375 1.953125 21.214844 1.953125 16 C 1.953125 15.070312 2.046875 14.113281 2.238281 13.214844 L 3.808594 13.535156 C 3.648438 14.335938 3.550781 15.167969 3.550781 16 C 3.550781 20.640625 6.113281 24.863281 10.207031 27.007812 Z M 9.472656 28.449219 "/>
<path style=" stroke:none;fill-rule:nonzero;fill:rgb(25.098041%,25.098041%,25.490198%);fill-opacity:1;" d="M 22.65625 28.382812 L 21.886719 26.976562 C 25.921875 24.800781 28.449219 20.609375 28.449219 16 C 28.449219 15.070312 28.351562 14.175781 28.160156 13.28125 L 29.726562 12.929688 C 29.953125 13.921875 30.046875 14.945312 30.046875 16 C 30.046875 21.183594 27.199219 25.921875 22.65625 28.382812 Z M 22.65625 28.382812 "/>
<path style=" stroke:none;fill-rule:nonzero;fill:rgb(25.098041%,25.098041%,25.490198%);fill-opacity:1;" d="M 22.398438 5.3125 C 20.480469 4.160156 18.273438 3.550781 16 3.550781 C 13.761719 3.550781 11.585938 4.160156 9.664062 5.28125 L 8.863281 3.902344 C 11.007812 2.625 13.503906 1.953125 16 1.953125 C 18.527344 1.953125 21.023438 2.625 23.199219 3.9375 Z M 22.398438 5.3125 "/>
<path style=" stroke:none;fill-rule:nonzero;fill:rgb(25.098041%,25.098041%,25.490198%);fill-opacity:1;" d="M 8.382812 6.046875 C 7.617188 6.945312 6.464844 7.488281 5.214844 7.488281 C 3.9375 7.488281 2.816406 6.910156 2.046875 6.046875 C 0.832031 6.527344 0 7.710938 0 9.054688 L 0 11.136719 C 0 11.710938 0.480469 12.191406 1.054688 12.191406 L 9.34375 12.191406 C 9.921875 12.191406 10.398438 11.710938 10.398438 11.136719 L 10.398438 9.054688 C 10.433594 7.710938 9.566406 6.527344 8.382812 6.046875 Z M 8.382812 6.046875 "/>
<path style=" stroke:none;fill-rule:nonzero;fill:rgb(25.098041%,25.098041%,25.490198%);fill-opacity:1;" d="M 3.136719 5.824219 C 3.710938 6.273438 4.414062 6.558594 5.214844 6.558594 C 6.015625 6.558594 6.71875 6.273438 7.296875 5.824219 C 8.191406 5.089844 8.703125 3.871094 8.414062 2.558594 C 8.160156 1.28125 7.105469 0.289062 5.824219 0.0625 C 3.742188 -0.320312 1.921875 1.246094 1.921875 3.296875 C 1.921875 4.289062 2.398438 5.214844 3.136719 5.824219 Z M 3.136719 5.824219 "/>
<path style=" stroke:none;fill-rule:nonzero;fill:rgb(25.098041%,25.098041%,25.490198%);fill-opacity:1;" d="M 29.953125 6.046875 C 29.183594 6.945312 28.03125 7.488281 26.785156 7.488281 C 25.503906 7.488281 24.382812 6.910156 23.617188 6.046875 C 22.433594 6.527344 21.566406 7.710938 21.566406 9.054688 L 21.566406 11.230469 C 21.566406 11.777344 22.015625 12.191406 22.527344 12.191406 L 31.039062 12.191406 C 31.585938 12.191406 32 11.742188 32 11.230469 L 32 9.054688 C 32 7.710938 31.167969 6.527344 29.953125 6.046875 Z M 29.953125 6.046875 "/>
<path style=" stroke:none;fill-rule:nonzero;fill:rgb(25.098041%,25.098041%,25.490198%);fill-opacity:1;" d="M 24.703125 5.824219 C 25.28125 6.273438 25.984375 6.558594 26.785156 6.558594 C 27.585938 6.558594 28.289062 6.273438 28.863281 5.824219 C 29.761719 5.089844 30.273438 3.871094 29.984375 2.558594 C 29.726562 1.28125 28.671875 0.289062 27.390625 0.0625 C 25.3125 -0.320312 23.519531 1.246094 23.519531 3.296875 C 23.519531 4.289062 23.96875 5.214844 24.703125 5.824219 Z M 24.703125 5.824219 "/>
</g>
</svg>

<svg role="img" viewBox="0 0 32 32" xmlns="http://www.w3.org/2000/svg"><path d="M19.168 25.824A4.18 4.18 0 0 1 16 27.266c-1.281 0-2.398-.578-3.168-1.442-1.184.48-2.047 1.664-2.047 3.008v2.145c0 .543.445.992.992.992h8.414a1 1 0 0 0 .993-.992v-2.145a3.17 3.17 0 0 0-2.016-3.008m-5.246-.222c.574.445 1.277.734 2.078.734.8 0 1.504-.29 2.078-.734a3.277 3.277 0 0 0 1.121-3.266c-.254-1.281-1.312-2.273-2.59-2.496a3.293 3.293 0 0 0-3.906 3.23c0 .992.48 1.922 1.219 2.532M9.473 28.45c-4.641-2.466-7.52-7.235-7.52-12.45 0-.93.094-1.887.285-2.785l1.57.32c-.16.8-.257 1.633-.257 2.465 0 4.64 2.562 8.863 6.656 11.008Zm13.183-.067-.77-1.406A12.453 12.453 0 0 0 28.45 16c0-.93-.097-1.824-.289-2.719l1.567-.351c.226.992.32 2.015.32 3.07 0 5.184-2.848 9.922-7.39 12.383m-.26-23.07A12.406 12.406 0 0 0 16 3.55c-2.238 0-4.414.61-6.336 1.73l-.8-1.379A14.02 14.02 0 0 1 16 1.953c2.527 0 5.023.672 7.2 1.985Zm-14.015.734a4.155 4.155 0 0 1-3.168 1.441 4.24 4.24 0 0 1-3.168-1.441A3.24 3.24 0 0 0 0 9.055v2.082c0 .574.48 1.054 1.055 1.054h8.289c.578 0 1.054-.48 1.054-1.054V9.055c.036-1.344-.832-2.528-2.015-3.008m-5.246-.223c.574.45 1.277.735 2.078.735.8 0 1.504-.286 2.082-.735A3.28 3.28 0 0 0 8.414 2.56C8.16 1.28 7.105.289 5.824.063a3.274 3.274 0 0 0-3.902 3.234c0 .992.476 1.918 1.215 2.527m26.816.223a4.167 4.167 0 0 1-3.168 1.441 4.226 4.226 0 0 1-3.168-1.441c-1.183.48-2.05 1.664-2.05 3.008v2.175c0 .547.449.961.96.961h8.512a.962.962 0 0 0 .961-.96V9.054a3.24 3.24 0 0 0-2.047-3.008m-5.25-.222c.578.45 1.281.735 2.082.735.8 0 1.504-.286 2.078-.735a3.274 3.274 0 0 0 1.121-3.265C29.727 1.28 28.672.289 27.391.063 25.313-.32 23.52 1.246 23.52 3.297c0 .992.449 1.918 1.183 2.527m0 0" style="stroke:none;fill-rule:nonzero;fill:rgb(25.098041%,25.098041%,25.490198%);fill-opacity:1"/></svg>
